dist/assets/img/promo/sdpp/scheme/scheme-3.svg

<svg width="256" height="199" viewBox="0 0 256 199" fill="none" xmlns="http://www.w3.org/2000/svg">
<path d="M169.098 180.996L1.14453 84.1985L87.0096 34.5918L254.973 131.389L169.098 180.996Z" fill="#4DA4FF" stroke="#26144D" stroke-width="1.5" stroke-linecap="round" stroke-linejoin="round"/>
<g style="mix-blend-mode:multiply" opacity="0.46">
<path d="M238.856 141.084L176.638 176.403L72.3176 117.927L157.224 94.0693L238.856 141.084Z" fill="#B2B4B3"/>
</g>
<path d="M168.963 197.773L1 100.986V84.0732L168.963 180.861V197.773Z" fill="#999999" stroke="#26144D" stroke-width="1.5" stroke-linecap="round" stroke-linejoin="round"/>
<path d="M254.906 148.292L169.041 197.899V180.987L254.906 131.38V148.292Z" fill="#D9D9D9" stroke="#26144D" stroke-width="1.5" stroke-linecap="round" stroke-linejoin="round"/>
<path d="M94.2339 32.3498L84.1696 50.683L24.5953 19.8636L24.6822 19.709C23.2527 18.9841 22.3545 17.2929 22.3545 14.8382C22.3545 10.122 25.6674 4.37176 29.7626 2.01367C31.9165 0.766981 33.8579 0.708995 35.2101 1.6271L35.2584 1.54012L94.2339 32.3498Z" fill="#D7D7D7" stroke="#26144D" stroke-width="1.5" stroke-linecap="round" stroke-linejoin="round"/>
<path d="M100.869 49.7231C107.604 38.0517 107.603 25.4358 100.868 21.5448C94.1323 17.6539 83.2127 23.9612 76.4782 35.6326C69.7436 47.3041 69.7443 59.9199 76.4798 63.8109C83.2152 67.7019 94.1348 61.3946 100.869 49.7231Z" fill="#F11131" stroke="#26144D" stroke-width="1.5" stroke-linecap="round" stroke-linejoin="round"/>
<path d="M74.6953 78.1489C74.6953 90.6159 79.2735 99.2074 86.5947 102.841L149.366 139.894L202.498 48.8662L138.094 10.6053L138.065 10.6536C131.343 6.96184 122.158 7.59968 112.026 13.4562C91.4047 25.3723 74.6953 54.3361 74.6953 78.1489Z" fill="#E30133" stroke="#26144D" stroke-width="1.5" stroke-linecap="round" stroke-linejoin="round"/>
<path d="M201.608 109.285C216.184 84.0235 216.185 56.7196 201.61 48.2998C187.035 39.88 163.404 53.5327 148.828 78.7938C134.252 104.055 134.251 131.359 148.826 139.779C163.401 148.198 187.032 134.546 201.608 109.285Z" fill="#BE0037" stroke="#26144D" stroke-width="1.5" stroke-linecap="round" stroke-linejoin="round"/>
<path d="M205.927 71.4522L200.904 83.5036L178.052 138.3L171.349 148.486L160.879 142.311L161.043 100.754C161.169 88.0941 170.19 72.7762 181.21 66.5427C184.369 64.7645 187.344 63.9141 189.98 63.9141C192.617 63.9141 194.713 64.6872 196.481 66.1465L205.927 71.4522Z" fill="#E30133" stroke="#26144D" stroke-width="1.5" stroke-linecap="round" stroke-linejoin="round"/>
<path d="M178.053 138.3L200.905 83.5039" stroke="#26144D" stroke-width="1.5" stroke-linecap="round" stroke-linejoin="round"/>
<path d="M210.989 125.601L171.35 148.486L171.514 106.929C171.63 94.2692 180.661 78.9513 191.681 72.7179C202.701 66.4844 211.539 71.7031 211.423 84.3633L210.989 125.601Z" fill="#BE0037" stroke="#26144D" stroke-width="1.5" stroke-linecap="round" stroke-linejoin="round"/>
<path d="M210.66 86.46L207.057 93.0124L195.66 113.791L191.642 121.097L184.389 116.989C181.211 115.868 179.183 112.505 179.183 107.422C179.183 98.5017 185.441 87.6584 193.159 83.2031C197.457 80.7194 201.301 80.7387 203.86 82.7779H203.87L210.66 86.46Z" fill="#E30133" stroke="#26144D" stroke-width="1.5" stroke-linecap="round" stroke-linejoin="round"/>
<path d="M210.876 109.44C216.333 99.9825 216.334 89.7609 210.878 86.6091C205.423 83.4574 196.576 88.569 191.119 98.0264C185.662 107.484 185.661 117.705 191.117 120.857C196.573 124.009 205.419 118.897 210.876 109.44Z" fill="#BE0037" stroke="#26144D" stroke-width="1.5" stroke-linecap="round" stroke-linejoin="round"/>
<path d="M148.43 22.4834V49.4564C151.945 46.1705 155.664 43.3486 159.527 41.1161C164.405 38.2942 169.07 36.6899 173.349 36.1873V24.4356L148.43 22.4834Z" fill="#BE0037" stroke="#26144D" stroke-width="1.5" stroke-linecap="round" stroke-linejoin="round"/>
<path d="M118.371 20.1348V31.9445L148.419 49.4659L148.429 49.4562V22.4832L118.371 20.1348Z" fill="#F11131" stroke="#26144D" stroke-width="1.5" stroke-linecap="round" stroke-linejoin="round"/>
<path d="M173.348 24.4352C169.069 24.9378 164.404 26.542 159.526 29.364C155.663 31.5965 151.935 34.4281 148.429 37.714L118.371 20.1926C118.371 20.1926 123.635 14.8193 131.652 11.1275C139.668 7.43576 145.068 7.63871 145.068 7.63871L173.338 24.4256L173.348 24.4352Z" fill="#F11131" stroke="#26144D" stroke-width="1.5" stroke-linecap="round" stroke-linejoin="round"/>
<path d="M72.5518 117.927L99.8558 110.756V84.9141L72.5518 117.927Z" fill="#7D7D7B" stroke="#26144D" stroke-width="1.5" stroke-linecap="round" stroke-linejoin="round"/>
<path d="M103.193 134.769L129.508 128.22V103.045L103.193 134.769Z" fill="#7D7D7B" stroke="#26144D" stroke-width="1.5" stroke-linecap="round" stroke-linejoin="round"/>
<path d="M99.8562 84.9139L88.2755 78.1973L62.2842 111.355L72.503 117.888L99.8562 84.9139Z" fill="#D7D7D7" stroke="#26144D" stroke-width="1.5" stroke-linecap="round" stroke-linejoin="round"/>
<path d="M129.508 103.045L117.928 96.3281L92.2002 129.155L103.194 134.769L129.508 103.045Z" fill="#D7D7D7" stroke="#26144D" stroke-width="1.5" stroke-linecap="round" stroke-linejoin="round"/>
<path d="M86.9193 54.8748L127.187 78.1367L132.32 69.2399L92.0529 45.978L86.9193 54.8748Z" fill="#BE0037" stroke="#26144D" stroke-width="1.5" stroke-linecap="round" stroke-linejoin="round"/>
<path d="M205.44 106.299C207.891 102.051 207.889 97.4582 205.436 96.0411C202.983 94.624 199.007 96.9189 196.556 101.167C194.105 105.415 194.107 110.007 196.56 111.424C199.013 112.841 202.988 110.546 205.44 106.299Z" fill="#7D7D7B" stroke="#26144D" stroke-width="1.5" stroke-linecap="round" stroke-linejoin="round"/>
<path d="M165.264 23.0827L145.541 11.4082" stroke="white" stroke-width="1.5" stroke-linecap="round" stroke-linejoin="round"/>
</svg>

<svg width="256" height="199" fill="none" xmlns="http://www.w3.org/2000/svg"><path d="M169.098 180.996L1.145 84.198 87.01 34.592l167.963 96.797-85.875 49.607z" fill="#4DA4FF" stroke="#26144D" stroke-width="1.5" stroke-linecap="round" stroke-linejoin="round"/><path d="M238.856 141.084l-62.218 35.319-104.32-58.476 84.906-23.858 81.632 47.015z" fill="#B2B4B3" opacity=".46"/><path d="M168.963 197.773L1 100.986V84.073l167.963 96.788v16.912z" fill="#999" stroke="#26144D" stroke-width="1.5" stroke-linecap="round" stroke-linejoin="round"/><path d="M254.906 148.292l-85.865 49.607v-16.912l85.865-49.607v16.912z" fill="#D9D9D9" stroke="#26144D" stroke-width="1.5" stroke-linecap="round" stroke-linejoin="round"/><path d="M94.234 32.35L84.17 50.683l-59.575-30.82.087-.154c-1.43-.725-2.327-2.416-2.327-4.87 0-4.717 3.312-10.467 7.408-12.825C31.916.767 33.858.709 35.21 1.627l.048-.087 58.976 30.81z" fill="#D7D7D7" stroke="#26144D" stroke-width="1.5" stroke-linecap="round" stroke-linejoin="round"/><path d="M100.869 49.723c6.735-11.671 6.734-24.287-.001-28.178-6.736-3.891-17.655 2.416-24.39 14.088-6.734 11.671-6.734 24.287.002 28.178 6.735 3.89 17.655-2.416 24.389-14.088z" fill="#F11131" stroke="#26144D" stroke-width="1.5" stroke-linecap="round" stroke-linejoin="round"/><path d="M74.695 78.149c0 12.467 4.579 21.058 11.9 24.692l62.771 37.053 53.132-91.028-64.404-38.26-.029.048c-6.722-3.692-15.907-3.054-26.039 2.802-20.621 11.916-37.33 40.88-37.33 64.693z" fill="#E30133" stroke="#26144D" stroke-width="1.5" stroke-linecap="round" stroke-linejoin="round"/><path d="M201.608 109.285c14.576-25.261 14.577-52.565.002-60.985-14.575-8.42-38.206 5.233-52.782 30.494-14.576 25.261-14.577 52.565-.002 60.985 14.575 8.419 38.206-5.233 52.782-30.494z" fill="#BE0037" stroke="#26144D" stroke-width="1.5" stroke-linecap="round" stroke-linejoin="round"/><path d="M205.927 71.452l-5.023 12.052-22.852 54.796-6.703 10.186-10.47-6.175.164-41.557c.126-12.66 9.147-27.978 20.167-34.211 3.159-1.779 6.134-2.629 8.77-2.629 2.637 0 4.733.773 6.501 2.233l9.446 5.305z" fill="#E30133" stroke="#26144D" stroke-width="1.5" stroke-linecap="round" stroke-linejoin="round"/><path d="M178.053 138.3l22.852-54.796" stroke="#26144D" stroke-width="1.5" stroke-linecap="round" stroke-linejoin="round"/><path d="M210.989 125.601l-39.639 22.885.164-41.557c.116-12.66 9.147-27.978 20.167-34.211 11.02-6.234 19.858-1.015 19.742 11.645l-.434 41.238z" fill="#BE0037" stroke="#26144D" stroke-width="1.5" stroke-linecap="round" stroke-linejoin="round"/><path d="M210.66 86.46l-3.603 6.552-11.397 20.779-4.018 7.306-7.253-4.108c-3.178-1.121-5.206-4.484-5.206-9.567 0-8.92 6.258-19.764 13.976-24.219 4.298-2.484 8.142-2.464 10.701-.425h.01l6.79 3.682z" fill="#E30133" stroke="#26144D" stroke-width="1.5" stroke-linecap="round" stroke-linejoin="round"/><path d="M210.876 109.44c5.457-9.457 5.458-19.68.002-22.83-5.455-3.153-14.302 1.959-19.759 11.416-5.457 9.458-5.458 19.679-.002 22.831 5.456 3.152 14.302-1.96 19.759-11.417zM148.43 22.483v26.973c3.515-3.286 7.234-6.107 11.097-8.34 4.878-2.822 9.543-4.426 13.822-4.929V24.436l-24.919-1.953z" fill="#BE0037" stroke="#26144D" stroke-width="1.5" stroke-linecap="round" stroke-linejoin="round"/><path d="M118.371 20.135v11.81l30.048 17.52.01-.009V22.483l-30.058-2.348z" fill="#F11131" stroke="#26144D" stroke-width="1.5" stroke-linecap="round" stroke-linejoin="round"/><path d="M173.348 24.435c-4.279.503-8.944 2.107-13.822 4.929-3.863 2.232-7.591 5.064-11.097 8.35l-30.058-17.521s5.264-5.374 13.281-9.066c8.016-3.691 13.416-3.488 13.416-3.488l28.27 16.787.01.01z" fill="#F11131" stroke="#26144D" stroke-width="1.5" stroke-linecap="round" stroke-linejoin="round"/><path d="M72.552 117.927l27.304-7.171V84.914l-27.304 33.013zm30.641 16.842l26.315-6.549v-25.175l-26.315 31.724z" fill="#7D7D7B" stroke="#26144D" stroke-width="1.5" stroke-linecap="round" stroke-linejoin="round"/><path d="M99.856 84.914l-11.58-6.717-25.992 33.158 10.219 6.533 27.353-32.974zm29.652 18.131l-11.58-6.717L92.2 129.155l10.994 5.614 26.314-31.724z" fill="#D7D7D7" stroke="#26144D" stroke-width="1.5" stroke-linecap="round" stroke-linejoin="round"/><path d="M86.92 54.875l40.267 23.262 5.133-8.897-40.267-23.262-5.134 8.897z" fill="#BE0037" stroke="#26144D" stroke-width="1.5" stroke-linecap="round" stroke-linejoin="round"/><path d="M205.44 106.299c2.451-4.248 2.449-8.84-.004-10.258-2.453-1.417-6.429.878-8.88 5.126-2.451 4.248-2.449 8.84.004 10.257 2.453 1.417 6.428-.878 8.88-5.125z" fill="#7D7D7B" stroke="#26144D" stroke-width="1.5" stroke-linecap="round" stroke-linejoin="round"/><path d="M165.264 23.083l-19.723-11.675" stroke="#fff" stroke-width="1.5" stroke-linecap="round" stroke-linejoin="round"/></svg>
